X: 180
T: Boys Of Ballisodare
R: slip jig
M: 9/8
L: 1/8
K:Gmaj
"G" D2 E G2 A B2 d | "Em" ege d2 e g3 | "G" D2 E G2 B d2 B | "D"AGA "G"B2 G E2 G |
"G" D2 E G2 A B2 d | "Em" ege d2 e g2 a | "Em"b2 a g2 e d2 B | "D"AGA "G"B2 G E2 G :||
|:"G" B2 d d2 B d2 B | Bcd e2 f g3 |B2 d d2 B d2 B | "D"AGA "G"B2 G E2 G |
"G"B2 d d2 B d2 B | Bcd e2 f g2 a | "Em" b2 a g2 e d2 B | "D" AGA "G"B2 G E2 G :||


